%%%
  VERSION:1
  LANGUAGE:ENGLISH
%%%

MODULE m2D_Contour38
  PROC p2D_Contour38()
    ! MoveAbsJ [[0,0,5,-70,40,70],[9E9,9E9,9E9,9E9,9E9,9E9]]\NoEOffs,v800,fine,tADSK27;
    MoveL [[1122.292,-122.202,16],[0,-0.25881905,0.96592583,0],[0,0,0,0],[9E9,9E9,9E9,9E9,9E9,9E9]],v800,z1,tADSK27\WObj:=wADSK0;
    MoveL [[1122.292,-122.202,6],[0,-0.25881905,0.96592583,0],[0,0,0,0],[9E9,9E9,9E9,9E9,9E9,9E9]],v800,z1,tADSK27\WObj:=wADSK0;
    ! Plunge Move Starts
    MoveL [[1122.292,-122.202,2],[0,-0.25881905,0.96592583,0],[0,0,0,0],[9E9,9E9,9E9,9E9,9E9,9E9]],v25,z1,tADSK27\WObj:=wADSK0;
    MoveL [[1122.292,-122.202,-3.525],[0,-0.25881905,0.96592583,0],[0,0,0,0],[9E9,9E9,9E9,9E9,9E9,9E9]],v25,z1,tADSK27\WObj:=wADSK0;
    ! Lead In Move Starts
    MoveL [[1121.95,-122.202,-5.688],[0,-0.25881905,0.96592583,0],[0,0,0,0],[9E9,9E9,9E9,9E9,9E9,9E9]],v75,z1,tADSK27\WObj:=wADSK0;
    MoveL [[1120.956,-122.202,-7.639],[0,-0.25881905,0.96592583,0],[0,0,0,0],[9E9,9E9,9E9,9E9,9E9,9E9]],v75,z1,tADSK27\WObj:=wADSK0;
    MoveL [[1119.407,-122.202,-9.188],[0,-0.25881905,0.96592583,0],[0,0,0,0],[9E9,9E9,9E9,9E9,9E9,9E9]],v75,z1,tADSK27\WObj:=wADSK0;
    MoveL [[1117.456,-122.202,-10.182],[0,-0.25881905,0.96592583,0],[0,0,0,0],[9E9,9E9,9E9,9E9,9E9,9E9]],v75,z1,tADSK27\WObj:=wADSK0;
    MoveL [[1115.292,-122.202,-10.525],[0,-0.25881905,0.96592583,0],[0,0,0,0],[9E9,9E9,9E9,9E9,9E9,9E9]],v75,z1,tADSK27\WObj:=wADSK0;
    MoveL [[1113.129,-122.545,-10.525],[0,-0.25881905,0.96592583,0],[0,0,0,0],[9E9,9E9,9E9,9E9,9E9,9E9]],v75,z1,tADSK27\WObj:=wADSK0;
    MoveL [[1111.178,-123.539,-10.525],[0,-0.25881905,0.96592583,0],[0,0,0,0],[9E9,9E9,9E9,9E9,9E9,9E9]],v75,z1,tADSK27\WObj:=wADSK0;
    MoveL [[1109.629,-125.088,-10.525],[0,-0.25881905,0.96592583,0],[0,0,0,0],[9E9,9E9,9E9,9E9,9E9,9E9]],v75,z1,tADSK27\WObj:=wADSK0;
    MoveL [[1108.635,-127.039,-10.525],[0,-0.25881905,0.96592583,0],[0,0,0,0],[9E9,9E9,9E9,9E9,9E9,9E9]],v75,z1,tADSK27\WObj:=wADSK0;
    MoveL [[1108.292,-129.202,-10.525],[0,-0.25881905,0.96592583,0],[0,0,0,0],[9E9,9E9,9E9,9E9,9E9,9E9]],v75,z1,tADSK27\WObj:=wADSK0;
    ! Cutting Move Starts
    MoveL [[1108.292,-1184.92,-10.525],[0,-0.25881905,0.96592583,0],[0,0,0,0],[9E9,9E9,9E9,9E9,9E9,9E9]],v75,z1,tADSK27\WObj:=wADSK0;
    MoveL [[1107.93,-1186.743,-10.525],[0,-0.25881905,0.96592583,0],[0,0,0,0],[9E9,9E9,9E9,9E9,9E9,9E9]],v75,z1,tADSK27\WObj:=wADSK0;
    MoveL [[1106.898,-1188.288,-10.525],[0,-0.25881905,0.96592583,0],[0,0,0,0],[9E9,9E9,9E9,9E9,9E9,9E9]],v75,z1,tADSK27\WObj:=wADSK0;
    MoveL [[1105.353,-1189.32,-10.525],[0,-0.25881905,0.96592583,0],[0,0,0,0],[9E9,9E9,9E9,9E9,9E9,9E9]],v75,z1,tADSK27\WObj:=wADSK0;
    MoveL [[1103.53,-1189.682,-10.525],[0,-0.25881905,0.96592583,0],[0,0,0,0],[9E9,9E9,9E9,9E9,9E9,9E9]],v75,z1,tADSK27\WObj:=wADSK0;
    MoveL [[112.93,-1189.682,-10.525],[0,-0.25881905,0.96592583,0],[0,0,0,0],[9E9,9E9,9E9,9E9,9E9,9E9]],v75,z1,tADSK27\WObj:=wADSK0;
    MoveL [[111.107,-1189.32,-10.525],[0,-0.25881905,0.96592583,0],[0,0,0,0],[9E9,9E9,9E9,9E9,9E9,9E9]],v75,z1,tADSK27\WObj:=wADSK0;
    MoveL [[109.562,-1188.288,-10.525],[0,-0.25881905,0.96592583,0],[0,0,0,0],[9E9,9E9,9E9,9E9,9E9,9E9]],v75,z1,tADSK27\WObj:=wADSK0;
    MoveL [[108.53,-1186.743,-10.525],[0,-0.25881905,0.96592583,0],[0,0,0,0],[9E9,9E9,9E9,9E9,9E9,9E9]],v75,z1,tADSK27\WObj:=wADSK0;
    MoveL [[108.168,-1184.92,-10.525],[0,-0.25881905,0.96592583,0],[0,0,0,0],[9E9,9E9,9E9,9E9,9E9,9E9]],v75,z1,tADSK27\WObj:=wADSK0;
    MoveL [[108.168,-29.222,-10.525],[0,-0.25881905,0.96592583,0],[0,0,0,0],[9E9,9E9,9E9,9E9,9E9,9E9]],v75,z1,tADSK27\WObj:=wADSK0;
    MoveL [[108.53,-27.399,-10.525],[0,-0.25881905,0.96592583,0],[0,0,0,0],[9E9,9E9,9E9,9E9,9E9,9E9]],v75,z1,tADSK27\WObj:=wADSK0;
    MoveL [[109.562,-25.854,-10.525],[0,-0.25881905,0.96592583,0],[0,0,0,0],[9E9,9E9,9E9,9E9,9E9,9E9]],v75,z1,tADSK27\WObj:=wADSK0;
    MoveL [[111.107,-24.822,-10.525],[0,-0.25881905,0.96592583,0],[0,0,0,0],[9E9,9E9,9E9,9E9,9E9,9E9]],v75,z1,tADSK27\WObj:=wADSK0;
    MoveL [[112.93,-24.459,-10.525],[0,-0.25881905,0.96592583,0],[0,0,0,0],[9E9,9E9,9E9,9E9,9E9,9E9]],v75,z1,tADSK27\WObj:=wADSK0;
    MoveL [[1103.53,-24.459,-10.525],[0,-0.25881905,0.96592583,0],[0,0,0,0],[9E9,9E9,9E9,9E9,9E9,9E9]],v75,z1,tADSK27\WObj:=wADSK0;
    MoveL [[1105.353,-24.822,-10.525],[0,-0.25881905,0.96592583,0],[0,0,0,0],[9E9,9E9,9E9,9E9,9E9,9E9]],v75,z1,tADSK27\WObj:=wADSK0;
    MoveL [[1106.898,-25.854,-10.525],[0,-0.25881905,0.96592583,0],[0,0,0,0],[9E9,9E9,9E9,9E9,9E9,9E9]],v75,z1,tADSK27\WObj:=wADSK0;
    MoveL [[1107.93,-27.399,-10.525],[0,-0.25881905,0.96592583,0],[0,0,0,0],[9E9,9E9,9E9,9E9,9E9,9E9]],v75,z1,tADSK27\WObj:=wADSK0;
    MoveL [[1108.292,-29.222,-10.525],[0,-0.25881905,0.96592583,0],[0,0,0,0],[9E9,9E9,9E9,9E9,9E9,9E9]],v75,z1,tADSK27\WObj:=wADSK0;
    MoveL [[1108.292,-129.202,-10.525],[0,-0.25881905,0.96592583,0],[0,0,0,0],[9E9,9E9,9E9,9E9,9E9,9E9]],v75,z1,tADSK27\WObj:=wADSK0;
    ! Lead Out Move Starts
    MoveL [[1108.635,-131.365,-10.525],[0,-0.25881905,0.96592583,0],[0,0,0,0],[9E9,9E9,9E9,9E9,9E9,9E9]],v75,z1,tADSK27\WObj:=wADSK0;
    MoveL [[1109.629,-133.316,-10.525],[0,-0.25881905,0.96592583,0],[0,0,0,0],[9E9,9E9,9E9,9E9,9E9,9E9]],v75,z1,tADSK27\WObj:=wADSK0;
    MoveL [[1111.178,-134.865,-10.525],[0,-0.25881905,0.96592583,0],[0,0,0,0],[9E9,9E9,9E9,9E9,9E9,9E9]],v75,z1,tADSK27\WObj:=wADSK0;
    MoveL [[1113.129,-135.859,-10.525],[0,-0.25881905,0.96592583,0],[0,0,0,0],[9E9,9E9,9E9,9E9,9E9,9E9]],v75,z1,tADSK27\WObj:=wADSK0;
    MoveL [[1115.292,-136.202,-10.525],[0,-0.25881905,0.96592583,0],[0,0,0,0],[9E9,9E9,9E9,9E9,9E9,9E9]],v75,z1,tADSK27\WObj:=wADSK0;
    MoveL [[1117.456,-136.202,-10.182],[0,-0.25881905,0.96592583,0],[0,0,0,0],[9E9,9E9,9E9,9E9,9E9,9E9]],v75,z1,tADSK27\WObj:=wADSK0;
    MoveL [[1119.407,-136.202,-9.188],[0,-0.25881905,0.96592583,0],[0,0,0,0],[9E9,9E9,9E9,9E9,9E9,9E9]],v75,z1,tADSK27\WObj:=wADSK0;
    MoveL [[1120.956,-136.202,-7.639],[0,-0.25881905,0.96592583,0],[0,0,0,0],[9E9,9E9,9E9,9E9,9E9,9E9]],v75,z1,tADSK27\WObj:=wADSK0;
    MoveL [[1121.95,-136.202,-5.688],[0,-0.25881905,0.96592583,0],[0,0,0,0],[9E9,9E9,9E9,9E9,9E9,9E9]],v75,z1,tADSK27\WObj:=wADSK0;
    MoveL [[1122.292,-136.202,-3.525],[0,-0.25881905,0.96592583,0],[0,0,0,0],[9E9,9E9,9E9,9E9,9E9,9E9]],v75,z1,tADSK27\WObj:=wADSK0;
    ! Rapid Move Starts
    MoveL [[1122.292,-136.202,16],[0,-0.25881905,0.96592583,0],[0,0,0,0],[9E9,9E9,9E9,9E9,9E9,9E9]],v800,z1,tADSK27\WObj:=wADSK0;

  MoveL [[618.54,-97.919,250],[0,-0.25881905,0.96592583,0],[0,0,0,0],[9E9,9E9,9E9,9E9,9E9,9E9]],v800,z1,tADSK27\WObj:=wADSK0;
  MoveAbsJ [[0,0,5,-70,40,70],[9E9,9E9,9E9,9E9,9E9,9E9]]\NoEOffs,v800,fine,tADSK27;

  ENDPROC
ENDMODULE
