%%%
  VERSION:1
  LANGUAGE:ENGLISH
%%%

MODULE m2D_Contour14

  PROC p2D_Contour14()
    MoveAbsJ [[0,0,5,-70,40,70],[9E9,9E9,9E9,9E9,9E9,9E9]]\NoEOffs,v800,fine,tADSK27;
    MoveL [[2449.353,-1055.37,25.525],[0,-0.25881905,0.96592583,0],[0,0,0,0],[9E9,9E9,9E9,9E9,9E9,9E9]],v800,z1,tADSK27\WObj:=wADSK0;
    MoveL [[2449.353,-1055.37,15.525],[0,-0.25881905,0.96592583,0],[0,0,0,0],[9E9,9E9,9E9,9E9,9E9,9E9]],v800,z1,tADSK27\WObj:=wADSK0;
   

   ! Spindle ON
    ! SetDO Local_IO_0_DO11, 1;
    WaitTime 5;
   
    ! Plunge Move Starts
    MoveL [[2449.353,-1055.37,11.525],[0,-0.25881905,0.96592583,0],[0,0,0,0],[9E9,9E9,9E9,9E9,9E9,9E9]],v50,z1,tADSK27\WObj:=wADSK0;
    MoveL [[2449.353,-1055.37,-0.048],[0,-0.25881905,0.96592583,0],[0,0,0,0],[9E9,9E9,9E9,9E9,9E9,9E9]],v50,z1,tADSK27\WObj:=wADSK0;
    ! Lead In Move Starts
    MoveL [[2449.353,-1055.091,-0.721],[0,-0.25881905,0.96592583,0],[0,0,0,0],[9E9,9E9,9E9,9E9,9E9,9E9]],v100,z1,tADSK27\WObj:=wADSK0;
    MoveL [[2449.353,-1054.417,-1],[0,-0.25881905,0.96592583,0],[0,0,0,0],[9E9,9E9,9E9,9E9,9E9,9E9]],v100,z1,tADSK27\WObj:=wADSK0;
    MoveL [[2449.353,-1053.465,-1],[0,-0.25881905,0.96592583,0],[0,0,0,0],[9E9,9E9,9E9,9E9,9E9,9E9]],v100,z1,tADSK27\WObj:=wADSK0;
    MoveL [[2449.073,-1052.791,-1],[0,-0.25881905,0.96592583,0],[0,0,0,0],[9E9,9E9,9E9,9E9,9E9,9E9]],v100,z1,tADSK27\WObj:=wADSK0;
    MoveL [[2448.4,-1052.512,-1],[0,-0.25881905,0.96592583,0],[0,0,0,0],[9E9,9E9,9E9,9E9,9E9,9E9]],v100,z1,tADSK27\WObj:=wADSK0;
    ! Cutting Move Starts
    MoveL [[1225.55,-1052.512,-1],[0,-0.25881905,0.96592583,0],[0,0,0,0],[9E9,9E9,9E9,9E9,9E9,9E9]],v100,z1,tADSK27\WObj:=wADSK0;
    MoveL [[1223.728,-1052.15,-1],[0,-0.25881905,0.96592583,0],[0,0,0,0],[9E9,9E9,9E9,9E9,9E9,9E9]],v100,z1,tADSK27\WObj:=wADSK0;
    MoveL [[1222.182,-1051.118,-1],[0,-0.25881905,0.96592583,0],[0,0,0,0],[9E9,9E9,9E9,9E9,9E9,9E9]],v100,z1,tADSK27\WObj:=wADSK0;
    MoveL [[1221.15,-1049.573,-1],[0,-0.25881905,0.96592583,0],[0,0,0,0],[9E9,9E9,9E9,9E9,9E9,9E9]],v100,z1,tADSK27\WObj:=wADSK0;
    MoveL [[1220.787,-1047.75,-1],[0,-0.25881905,0.96592583,0],[0,0,0,0],[9E9,9E9,9E9,9E9,9E9,9E9]],v100,z1,tADSK27\WObj:=wADSK0;
    MoveL [[1220.787,0,-1],[0,-0.25881905,0.96592583,0],[0,0,0,0],[9E9,9E9,9E9,9E9,9E9,9E9]],v100,z1,tADSK27\WObj:=wADSK0;
    MoveL [[1220.787,10,-1],[0,-0.25881905,0.96592583,0],[0,0,0,0],[9E9,9E9,9E9,9E9,9E9,9E9]],v100,z1,tADSK27\WObj:=wADSK0;
    ! Lead Out Move Starts
    MoveL [[1220.508,10.674,-1],[0,-0.25881905,0.96592583,0],[0,0,0,0],[9E9,9E9,9E9,9E9,9E9,9E9]],v100,z1,tADSK27\WObj:=wADSK0;
    MoveL [[1219.835,10.952,-1],[0,-0.25881905,0.96592583,0],[0,0,0,0],[9E9,9E9,9E9,9E9,9E9,9E9]],v100,z1,tADSK27\WObj:=wADSK0;
    MoveL [[1218.882,10.952,-1],[0,-0.25881905,0.96592583,0],[0,0,0,0],[9E9,9E9,9E9,9E9,9E9,9E9]],v100,z1,tADSK27\WObj:=wADSK0;
    MoveL [[1218.209,10.952,-0.721],[0,-0.25881905,0.96592583,0],[0,0,0,0],[9E9,9E9,9E9,9E9,9E9,9E9]],v100,z1,tADSK27\WObj:=wADSK0;
    MoveL [[1217.93,10.952,-0.048],[0,-0.25881905,0.96592583,0],[0,0,0,0],[9E9,9E9,9E9,9E9,9E9,9E9]],v100,z1,tADSK27\WObj:=wADSK0;
    ! Rapid Move Starts
    MoveL [[1217.93,10.952,25.525],[0,-0.25881905,0.96592583,0],[0,0,0,0],[9E9,9E9,9E9,9E9,9E9,9E9]],v800,z1,tADSK27\WObj:=wADSK0;
  ENDPROC
ENDMODULE
