%%%
  VERSION:1
  LANGUAGE:ENGLISH
%%%

MODULE m2D_Contour10


  PROC p2D_Contour10()
    ! MoveAbsJ [[0,0,5,-70,40,70],[9E9,9E9,9E9,9E9,9E9,9E9]]\NoEOffs,v800,fine,tADSK27;
    MoveL [[2449.353,-550.545,16],[0,-0.25881905,0.96592583,0],[0,0,0,0],[9E9,9E9,9E9,9E9,9E9,9E9]],v800,z1,tADSK27\WObj:=wADSK0;
    MoveL [[2449.353,-550.545,6],[0,-0.25881905,0.96592583,0],[0,0,0,0],[9E9,9E9,9E9,9E9,9E9,9E9]],v800,z1,tADSK27\WObj:=wADSK0;
    ! Plunge Move Starts
    MoveL [[2449.353,-550.545,2],[0,-0.25881905,0.96592583,0],[0,0,0,0],[9E9,9E9,9E9,9E9,9E9,9E9]],v50,z1,tADSK27\WObj:=wADSK0;
    MoveL [[2449.353,-550.545,-9.573],[0,-0.25881905,0.96592583,0],[0,0,0,0],[9E9,9E9,9E9,9E9,9E9,9E9]],v50,z1,tADSK27\WObj:=wADSK0;
    ! Lead In Move Starts
    MoveL [[2449.353,-550.266,-10.246],[0,-0.25881905,0.96592583,0],[0,0,0,0],[9E9,9E9,9E9,9E9,9E9,9E9]],v100,z1,tADSK27\WObj:=wADSK0;
    MoveL [[2449.353,-549.593,-10.525],[0,-0.25881905,0.96592583,0],[0,0,0,0],[9E9,9E9,9E9,9E9,9E9,9E9]],v100,z1,tADSK27\WObj:=wADSK0;
    MoveL [[2449.353,-548.64,-10.525],[0,-0.25881905,0.96592583,0],[0,0,0,0],[9E9,9E9,9E9,9E9,9E9,9E9]],v100,z1,tADSK27\WObj:=wADSK0;
    MoveL [[2449.073,-547.966,-10.525],[0,-0.25881905,0.96592583,0],[0,0,0,0],[9E9,9E9,9E9,9E9,9E9,9E9]],v100,z1,tADSK27\WObj:=wADSK0;
    MoveL [[2448.4,-547.688,-10.525],[0,-0.25881905,0.96592583,0],[0,0,0,0],[9E9,9E9,9E9,9E9,9E9,9E9]],v100,z1,tADSK27\WObj:=wADSK0;
    ! Cutting Move Starts
    MoveL [[1225.55,-547.688,-10.525],[0,-0.25881905,0.96592583,0],[0,0,0,0],[9E9,9E9,9E9,9E9,9E9,9E9]],v100,z1,tADSK27\WObj:=wADSK0;
    MoveL [[1223.728,-547.325,-10.525],[0,-0.25881905,0.96592583,0],[0,0,0,0],[9E9,9E9,9E9,9E9,9E9,9E9]],v100,z1,tADSK27\WObj:=wADSK0;
    MoveL [[1222.182,-546.293,-10.525],[0,-0.25881905,0.96592583,0],[0,0,0,0],[9E9,9E9,9E9,9E9,9E9,9E9]],v100,z1,tADSK27\WObj:=wADSK0;
    MoveL [[1221.15,-544.748,-10.525],[0,-0.25881905,0.96592583,0],[0,0,0,0],[9E9,9E9,9E9,9E9,9E9,9E9]],v100,z1,tADSK27\WObj:=wADSK0;
    MoveL [[1220.787,-542.925,-10.525],[0,-0.25881905,0.96592583,0],[0,0,0,0],[9E9,9E9,9E9,9E9,9E9,9E9]],v100,z1,tADSK27\WObj:=wADSK0;
    MoveL [[1220.787,0,-10.525],[0,-0.25881905,0.96592583,0],[0,0,0,0],[9E9,9E9,9E9,9E9,9E9,9E9]],v100,z1,tADSK27\WObj:=wADSK0;
    MoveL [[1220.787,10,-10.525],[0,-0.25881905,0.96592583,0],[0,0,0,0],[9E9,9E9,9E9,9E9,9E9,9E9]],v100,z1,tADSK27\WObj:=wADSK0;
    ! Lead Out Move Starts
    MoveL [[1220.508,10.674,-10.525],[0,-0.25881905,0.96592583,0],[0,0,0,0],[9E9,9E9,9E9,9E9,9E9,9E9]],v100,z1,tADSK27\WObj:=wADSK0;
    MoveL [[1219.835,10.952,-10.525],[0,-0.25881905,0.96592583,0],[0,0,0,0],[9E9,9E9,9E9,9E9,9E9,9E9]],v100,z1,tADSK27\WObj:=wADSK0;
    MoveL [[1218.882,10.952,-10.525],[0,-0.25881905,0.96592583,0],[0,0,0,0],[9E9,9E9,9E9,9E9,9E9,9E9]],v100,z1,tADSK27\WObj:=wADSK0;
    MoveL [[1218.209,10.952,-10.246],[0,-0.25881905,0.96592583,0],[0,0,0,0],[9E9,9E9,9E9,9E9,9E9,9E9]],v100,z1,tADSK27\WObj:=wADSK0;
    MoveL [[1217.93,10.952,-9.573],[0,-0.25881905,0.96592583,0],[0,0,0,0],[9E9,9E9,9E9,9E9,9E9,9E9]],v100,z1,tADSK27\WObj:=wADSK0;
    ! Rapid Move Starts
    MoveL [[1217.93,10.952,16],[0,-0.25881905,0.96592583,0],[0,0,0,0],[9E9,9E9,9E9,9E9,9E9,9E9]],v800,z1,tADSK27\WObj:=wADSK0;
  ENDPROC
ENDMODULE
