%%%
  VERSION:1
  LANGUAGE:ENGLISH
%%%

MODULE m2D_Contour44
  PROC p2D_Contour44()
    ! MoveAbsJ [[0,0,5,-70,40,70],[9E9,9E9,9E9,9E9,9E9,9E9]]\NoEOffs,v800,fine,tADSK27;
    MoveL [[2058.38,-315.594,16],[0,-0.25881905,0.96592583,0],[0,0,0,0],[9E9,9E9,9E9,9E9,9E9,9E9]],v800,z1,tADSK27\WObj:=wADSK0;
    MoveL [[2058.38,-315.594,6],[0,-0.25881905,0.96592583,0],[0,0,0,0],[9E9,9E9,9E9,9E9,9E9,9E9]],v800,z1,tADSK27\WObj:=wADSK0;
    ! Plunge Move Starts
    MoveL [[2058.38,-315.594,2],[0,-0.25881905,0.96592583,0],[0,0,0,0],[9E9,9E9,9E9,9E9,9E9,9E9]],v25,z1,tADSK27\WObj:=wADSK0;
    MoveL [[2058.38,-315.594,-9.573],[0,-0.25881905,0.96592583,0],[0,0,0,0],[9E9,9E9,9E9,9E9,9E9,9E9]],v25,z1,tADSK27\WObj:=wADSK0;
    ! Lead In Move Starts
    MoveL [[2058.659,-315.594,-10.246],[0,-0.25881905,0.96592583,0],[0,0,0,0],[9E9,9E9,9E9,9E9,9E9,9E9]],v75,z1,tADSK27\WObj:=wADSK0;
    MoveL [[2059.333,-315.594,-10.525],[0,-0.25881905,0.96592583,0],[0,0,0,0],[9E9,9E9,9E9,9E9,9E9,9E9]],v75,z1,tADSK27\WObj:=wADSK0;
    MoveL [[2060.285,-315.594,-10.525],[0,-0.25881905,0.96592583,0],[0,0,0,0],[9E9,9E9,9E9,9E9,9E9,9E9]],v75,z1,tADSK27\WObj:=wADSK0;
    MoveL [[2060.958,-315.315,-10.525],[0,-0.25881905,0.96592583,0],[0,0,0,0],[9E9,9E9,9E9,9E9,9E9,9E9]],v75,z1,tADSK27\WObj:=wADSK0;
    MoveL [[2061.238,-314.641,-10.525],[0,-0.25881905,0.96592583,0],[0,0,0,0],[9E9,9E9,9E9,9E9,9E9,9E9]],v75,z1,tADSK27\WObj:=wADSK0;
    ! Cutting Move Starts
    MoveL [[2061.238,-81.279,-10.525],[0,-0.25881905,0.96592583,0],[0,0,0,0],[9E9,9E9,9E9,9E9,9E9,9E9]],v75,z1,tADSK27\WObj:=wADSK0;
    MoveL [[2061.6,-79.456,-10.525],[0,-0.25881905,0.96592583,0],[0,0,0,0],[9E9,9E9,9E9,9E9,9E9,9E9]],v75,z1,tADSK27\WObj:=wADSK0;
    MoveL [[2062.632,-77.911,-10.525],[0,-0.25881905,0.96592583,0],[0,0,0,0],[9E9,9E9,9E9,9E9,9E9,9E9]],v75,z1,tADSK27\WObj:=wADSK0;
    MoveL [[2064.177,-76.879,-10.525],[0,-0.25881905,0.96592583,0],[0,0,0,0],[9E9,9E9,9E9,9E9,9E9,9E9]],v75,z1,tADSK27\WObj:=wADSK0;
    MoveL [[2066,-76.516,-10.525],[0,-0.25881905,0.96592583,0],[0,0,0,0],[9E9,9E9,9E9,9E9,9E9,9E9]],v75,z1,tADSK27\WObj:=wADSK0;
    MoveL [[2377.15,-76.516,-10.525],[0,-0.25881905,0.96592583,0],[0,0,0,0],[9E9,9E9,9E9,9E9,9E9,9E9]],v75,z1,tADSK27\WObj:=wADSK0;
    MoveL [[2378.972,-76.878,-10.525],[0,-0.25881905,0.96592583,0],[0,0,0,0],[9E9,9E9,9E9,9E9,9E9,9E9]],v75,z1,tADSK27\WObj:=wADSK0;
    MoveL [[2380.518,-77.911,-10.525],[0,-0.25881905,0.96592583,0],[0,0,0,0],[9E9,9E9,9E9,9E9,9E9,9E9]],v75,z1,tADSK27\WObj:=wADSK0;
    MoveL [[2381.55,-79.456,-10.525],[0,-0.25881905,0.96592583,0],[0,0,0,0],[9E9,9E9,9E9,9E9,9E9,9E9]],v75,z1,tADSK27\WObj:=wADSK0;
    MoveL [[2381.913,-81.279,-10.525],[0,-0.25881905,0.96592583,0],[0,0,0,0],[9E9,9E9,9E9,9E9,9E9,9E9]],v75,z1,tADSK27\WObj:=wADSK0;
    MoveL [[2381.913,-548.004,-10.525],[0,-0.25881905,0.96592583,0],[0,0,0,0],[9E9,9E9,9E9,9E9,9E9,9E9]],v75,z1,tADSK27\WObj:=wADSK0;
    MoveL [[2381.55,-549.827,-10.525],[0,-0.25881905,0.96592583,0],[0,0,0,0],[9E9,9E9,9E9,9E9,9E9,9E9]],v75,z1,tADSK27\WObj:=wADSK0;
    MoveL [[2380.518,-551.372,-10.525],[0,-0.25881905,0.96592583,0],[0,0,0,0],[9E9,9E9,9E9,9E9,9E9,9E9]],v75,z1,tADSK27\WObj:=wADSK0;
    MoveL [[2378.972,-552.404,-10.525],[0,-0.25881905,0.96592583,0],[0,0,0,0],[9E9,9E9,9E9,9E9,9E9,9E9]],v75,z1,tADSK27\WObj:=wADSK0;
    MoveL [[2377.15,-552.766,-10.525],[0,-0.25881905,0.96592583,0],[0,0,0,0],[9E9,9E9,9E9,9E9,9E9,9E9]],v75,z1,tADSK27\WObj:=wADSK0;
    MoveL [[2066,-552.766,-10.525],[0,-0.25881905,0.96592583,0],[0,0,0,0],[9E9,9E9,9E9,9E9,9E9,9E9]],v75,z1,tADSK27\WObj:=wADSK0;
    MoveL [[2064.177,-552.404,-10.525],[0,-0.25881905,0.96592583,0],[0,0,0,0],[9E9,9E9,9E9,9E9,9E9,9E9]],v75,z1,tADSK27\WObj:=wADSK0;
    MoveL [[2062.632,-551.372,-10.525],[0,-0.25881905,0.96592583,0],[0,0,0,0],[9E9,9E9,9E9,9E9,9E9,9E9]],v75,z1,tADSK27\WObj:=wADSK0;
    MoveL [[2061.6,-549.827,-10.525],[0,-0.25881905,0.96592583,0],[0,0,0,0],[9E9,9E9,9E9,9E9,9E9,9E9]],v75,z1,tADSK27\WObj:=wADSK0;
    MoveL [[2061.238,-548.004,-10.525],[0,-0.25881905,0.96592583,0],[0,0,0,0],[9E9,9E9,9E9,9E9,9E9,9E9]],v75,z1,tADSK27\WObj:=wADSK0;
    MoveL [[2061.238,-314.641,-10.525],[0,-0.25881905,0.96592583,0],[0,0,0,0],[9E9,9E9,9E9,9E9,9E9,9E9]],v75,z1,tADSK27\WObj:=wADSK0;
    ! Lead Out Move Starts
    MoveL [[2060.958,-313.968,-10.525],[0,-0.25881905,0.96592583,0],[0,0,0,0],[9E9,9E9,9E9,9E9,9E9,9E9]],v75,z1,tADSK27\WObj:=wADSK0;
    MoveL [[2060.285,-313.689,-10.525],[0,-0.25881905,0.96592583,0],[0,0,0,0],[9E9,9E9,9E9,9E9,9E9,9E9]],v75,z1,tADSK27\WObj:=wADSK0;
    MoveL [[2059.333,-313.689,-10.525],[0,-0.25881905,0.96592583,0],[0,0,0,0],[9E9,9E9,9E9,9E9,9E9,9E9]],v75,z1,tADSK27\WObj:=wADSK0;
    MoveL [[2058.659,-313.689,-10.246],[0,-0.25881905,0.96592583,0],[0,0,0,0],[9E9,9E9,9E9,9E9,9E9,9E9]],v75,z1,tADSK27\WObj:=wADSK0;
    MoveL [[2058.38,-313.689,-9.573],[0,-0.25881905,0.96592583,0],[0,0,0,0],[9E9,9E9,9E9,9E9,9E9,9E9]],v75,z1,tADSK27\WObj:=wADSK0;
    ! Rapid Move Starts
    MoveL [[2058.38,-313.689,6],[0,-0.25881905,0.96592583,0],[0,0,0,0],[9E9,9E9,9E9,9E9,9E9,9E9]],v800,z1,tADSK27\WObj:=wADSK0;
    MoveL [[2416.202,-593.724,6],[0,-0.25881905,0.96592583,0],[0,0,0,0],[9E9,9E9,9E9,9E9,9E9,9E9]],v800,z1,tADSK27\WObj:=wADSK0;
    ! Plunge Move Starts
    MoveL [[2416.202,-593.724,2],[0,-0.25881905,0.96592583,0],[0,0,0,0],[9E9,9E9,9E9,9E9,9E9,9E9]],v25,z1,tADSK27\WObj:=wADSK0;
    MoveL [[2416.202,-593.724,-9.573],[0,-0.25881905,0.96592583,0],[0,0,0,0],[9E9,9E9,9E9,9E9,9E9,9E9]],v25,z1,tADSK27\WObj:=wADSK0;
    ! Lead In Move Starts
    MoveL [[2416.202,-593.445,-10.246],[0,-0.25881905,0.96592583,0],[0,0,0,0],[9E9,9E9,9E9,9E9,9E9,9E9]],v75,z1,tADSK27\WObj:=wADSK0;
    MoveL [[2416.202,-592.771,-10.525],[0,-0.25881905,0.96592583,0],[0,0,0,0],[9E9,9E9,9E9,9E9,9E9,9E9]],v75,z1,tADSK27\WObj:=wADSK0;
    MoveL [[2416.202,-591.819,-10.525],[0,-0.25881905,0.96592583,0],[0,0,0,0],[9E9,9E9,9E9,9E9,9E9,9E9]],v75,z1,tADSK27\WObj:=wADSK0;
    MoveL [[2415.923,-591.146,-10.525],[0,-0.25881905,0.96592583,0],[0,0,0,0],[9E9,9E9,9E9,9E9,9E9,9E9]],v75,z1,tADSK27\WObj:=wADSK0;
    MoveL [[2415.25,-590.867,-10.525],[0,-0.25881905,0.96592583,0],[0,0,0,0],[9E9,9E9,9E9,9E9,9E9,9E9]],v75,z1,tADSK27\WObj:=wADSK0;
    ! Cutting Move Starts
    MoveL [[1202.4,-590.867,-10.525],[0,-0.25881905,0.96592583,0],[0,0,0,0],[9E9,9E9,9E9,9E9,9E9,9E9]],v75,z1,tADSK27\WObj:=wADSK0;
    MoveL [[1200.577,-590.504,-10.525],[0,-0.25881905,0.96592583,0],[0,0,0,0],[9E9,9E9,9E9,9E9,9E9,9E9]],v75,z1,tADSK27\WObj:=wADSK0;
    MoveL [[1199.032,-589.472,-10.525],[0,-0.25881905,0.96592583,0],[0,0,0,0],[9E9,9E9,9E9,9E9,9E9,9E9]],v75,z1,tADSK27\WObj:=wADSK0;
    MoveL [[1198,-587.927,-10.525],[0,-0.25881905,0.96592583,0],[0,0,0,0],[9E9,9E9,9E9,9E9,9E9,9E9]],v75,z1,tADSK27\WObj:=wADSK0;
    MoveL [[1197.637,-586.104,-10.525],[0,-0.25881905,0.96592583,0],[0,0,0,0],[9E9,9E9,9E9,9E9,9E9,9E9]],v75,z1,tADSK27\WObj:=wADSK0;
    MoveL [[1197.637,-43.179,-10.525],[0,-0.25881905,0.96592583,0],[0,0,0,0],[9E9,9E9,9E9,9E9,9E9,9E9]],v75,z1,tADSK27\WObj:=wADSK0;
    MoveL [[1198,-41.356,-10.525],[0,-0.25881905,0.96592583,0],[0,0,0,0],[9E9,9E9,9E9,9E9,9E9,9E9]],v75,z1,tADSK27\WObj:=wADSK0;
    MoveL [[1199.032,-39.811,-10.525],[0,-0.25881905,0.96592583,0],[0,0,0,0],[9E9,9E9,9E9,9E9,9E9,9E9]],v75,z1,tADSK27\WObj:=wADSK0;
    MoveL [[1200.577,-38.779,-10.525],[0,-0.25881905,0.96592583,0],[0,0,0,0],[9E9,9E9,9E9,9E9,9E9,9E9]],v75,z1,tADSK27\WObj:=wADSK0;
    MoveL [[1202.4,-38.416,-10.525],[0,-0.25881905,0.96592583,0],[0,0,0,0],[9E9,9E9,9E9,9E9,9E9,9E9]],v75,z1,tADSK27\WObj:=wADSK0;
    MoveL [[2415.25,-38.416,-10.525],[0,-0.25881905,0.96592583,0],[0,0,0,0],[9E9,9E9,9E9,9E9,9E9,9E9]],v75,z1,tADSK27\WObj:=wADSK0;
    MoveL [[2417.073,-38.779,-10.525],[0,-0.25881905,0.96592583,0],[0,0,0,0],[9E9,9E9,9E9,9E9,9E9,9E9]],v75,z1,tADSK27\WObj:=wADSK0;
    MoveL [[2418.618,-39.811,-10.525],[0,-0.25881905,0.96592583,0],[0,0,0,0],[9E9,9E9,9E9,9E9,9E9,9E9]],v75,z1,tADSK27\WObj:=wADSK0;
    MoveL [[2419.65,-41.356,-10.525],[0,-0.25881905,0.96592583,0],[0,0,0,0],[9E9,9E9,9E9,9E9,9E9,9E9]],v75,z1,tADSK27\WObj:=wADSK0;
    MoveL [[2420.012,-43.179,-10.525],[0,-0.25881905,0.96592583,0],[0,0,0,0],[9E9,9E9,9E9,9E9,9E9,9E9]],v75,z1,tADSK27\WObj:=wADSK0;
    MoveL [[2420.012,-586.104,-10.525],[0,-0.25881905,0.96592583,0],[0,0,0,0],[9E9,9E9,9E9,9E9,9E9,9E9]],v75,z1,tADSK27\WObj:=wADSK0;
    MoveL [[2419.65,-587.927,-10.525],[0,-0.25881905,0.96592583,0],[0,0,0,0],[9E9,9E9,9E9,9E9,9E9,9E9]],v75,z1,tADSK27\WObj:=wADSK0;
    MoveL [[2418.618,-589.472,-10.525],[0,-0.25881905,0.96592583,0],[0,0,0,0],[9E9,9E9,9E9,9E9,9E9,9E9]],v75,z1,tADSK27\WObj:=wADSK0;
    MoveL [[2417.073,-590.504,-10.525],[0,-0.25881905,0.96592583,0],[0,0,0,0],[9E9,9E9,9E9,9E9,9E9,9E9]],v75,z1,tADSK27\WObj:=wADSK0;
    MoveL [[2415.25,-590.867,-10.525],[0,-0.25881905,0.96592583,0],[0,0,0,0],[9E9,9E9,9E9,9E9,9E9,9E9]],v75,z1,tADSK27\WObj:=wADSK0;
    ! Lead Out Move Starts
    MoveL [[2414.577,-591.146,-10.525],[0,-0.25881905,0.96592583,0],[0,0,0,0],[9E9,9E9,9E9,9E9,9E9,9E9]],v75,z1,tADSK27\WObj:=wADSK0;
    MoveL [[2414.298,-591.819,-10.525],[0,-0.25881905,0.96592583,0],[0,0,0,0],[9E9,9E9,9E9,9E9,9E9,9E9]],v75,z1,tADSK27\WObj:=wADSK0;
    MoveL [[2414.298,-592.771,-10.525],[0,-0.25881905,0.96592583,0],[0,0,0,0],[9E9,9E9,9E9,9E9,9E9,9E9]],v75,z1,tADSK27\WObj:=wADSK0;
    MoveL [[2414.298,-593.445,-10.246],[0,-0.25881905,0.96592583,0],[0,0,0,0],[9E9,9E9,9E9,9E9,9E9,9E9]],v75,z1,tADSK27\WObj:=wADSK0;
    MoveL [[2414.298,-593.724,-9.573],[0,-0.25881905,0.96592583,0],[0,0,0,0],[9E9,9E9,9E9,9E9,9E9,9E9]],v75,z1,tADSK27\WObj:=wADSK0;
    ! Rapid Move Starts
    MoveL [[2414.298,-593.724,16],[0,-0.25881905,0.96592583,0],[0,0,0,0],[9E9,9E9,9E9,9E9,9E9,9E9]],v800,z1,tADSK27\WObj:=wADSK0;
  ENDPROC
ENDMODULE
