%%%
  VERSION:1
  LANGUAGE:ENGLISH
%%%

MODULE m2D_Contour21

  PROC p2D_Contour21()
    ! MoveAbsJ [[0,0,5,-70,40,70],[9E9,9E9,9E9,9E9,9E9,9E9]]\NoEOffs,v800,fine,tADSK27;
    MoveL [[664.845,10.952,16],[0,-0.25881905,0.96592583,0],[0,0,0,0],[9E9,9E9,9E9,9E9,9E9,9E9]],v800,z1,tADSK27\WObj:=wADSK0;
    MoveL [[664.845,10.952,6],[0,-0.25881905,0.96592583,0],[0,0,0,0],[9E9,9E9,9E9,9E9,9E9,9E9]],v800,z1,tADSK27\WObj:=wADSK0;
    ! Plunge Move Starts
    MoveL [[664.845,10.952,2],[0,-0.25881905,0.96592583,0],[0,0,0,0],[9E9,9E9,9E9,9E9,9E9,9E9]],v50,z1,tADSK27\WObj:=wADSK0;
    MoveL [[664.845,10.952,-9.573],[0,-0.25881905,0.96592583,0],[0,0,0,0],[9E9,9E9,9E9,9E9,9E9,9E9]],v50,z1,tADSK27\WObj:=wADSK0;
    ! Lead In Move Starts
    MoveL [[664.566,10.952,-10.246],[0,-0.25881905,0.96592583,0],[0,0,0,0],[9E9,9E9,9E9,9E9,9E9,9E9]],v100,z1,tADSK27\WObj:=wADSK0;
    MoveL [[663.893,10.952,-10.525],[0,-0.25881905,0.96592583,0],[0,0,0,0],[9E9,9E9,9E9,9E9,9E9,9E9]],v100,z1,tADSK27\WObj:=wADSK0;
    MoveL [[662.94,10.952,-10.525],[0,-0.25881905,0.96592583,0],[0,0,0,0],[9E9,9E9,9E9,9E9,9E9,9E9]],v100,z1,tADSK27\WObj:=wADSK0;
    MoveL [[662.266,10.674,-10.525],[0,-0.25881905,0.96592583,0],[0,0,0,0],[9E9,9E9,9E9,9E9,9E9,9E9]],v100,z1,tADSK27\WObj:=wADSK0;
    MoveL [[661.987,10,-10.525],[0,-0.25881905,0.96592583,0],[0,0,0,0],[9E9,9E9,9E9,9E9,9E9,9E9]],v100,z1,tADSK27\WObj:=wADSK0;
    ! Cutting Move Starts
    MoveL [[661.987,-1038.23,-10.525],[0,-0.25881905,0.96592583,0],[0,0,0,0],[9E9,9E9,9E9,9E9,9E9,9E9]],v100,z1,tADSK27\WObj:=wADSK0;
    MoveL [[661.625,-1040.053,-10.525],[0,-0.25881905,0.96592583,0],[0,0,0,0],[9E9,9E9,9E9,9E9,9E9,9E9]],v100,z1,tADSK27\WObj:=wADSK0;
    MoveL [[660.593,-1041.598,-10.525],[0,-0.25881905,0.96592583,0],[0,0,0,0],[9E9,9E9,9E9,9E9,9E9,9E9]],v100,z1,tADSK27\WObj:=wADSK0;
    MoveL [[659.048,-1042.63,-10.525],[0,-0.25881905,0.96592583,0],[0,0,0,0],[9E9,9E9,9E9,9E9,9E9,9E9]],v100,z1,tADSK27\WObj:=wADSK0;
    MoveL [[657.225,-1042.993,-10.525],[0,-0.25881905,0.96592583,0],[0,0,0,0],[9E9,9E9,9E9,9E9,9E9,9E9]],v100,z1,tADSK27\WObj:=wADSK0;
    MoveL [[114.3,-1042.993,-10.525],[0,-0.25881905,0.96592583,0],[0,0,0,0],[9E9,9E9,9E9,9E9,9E9,9E9]],v100,z1,tADSK27\WObj:=wADSK0;
    MoveL [[112.477,-1042.63,-10.525],[0,-0.25881905,0.96592583,0],[0,0,0,0],[9E9,9E9,9E9,9E9,9E9,9E9]],v100,z1,tADSK27\WObj:=wADSK0;
    MoveL [[110.932,-1041.598,-10.525],[0,-0.25881905,0.96592583,0],[0,0,0,0],[9E9,9E9,9E9,9E9,9E9,9E9]],v100,z1,tADSK27\WObj:=wADSK0;
    MoveL [[109.9,-1040.053,-10.525],[0,-0.25881905,0.96592583,0],[0,0,0,0],[9E9,9E9,9E9,9E9,9E9,9E9]],v100,z1,tADSK27\WObj:=wADSK0;
    MoveL [[109.537,-1038.23,-10.525],[0,-0.25881905,0.96592583,0],[0,0,0,0],[9E9,9E9,9E9,9E9,9E9,9E9]],v100,z1,tADSK27\WObj:=wADSK0;
    MoveL [[109.537,0,-10.525],[0,-0.25881905,0.96592583,0],[0,0,0,0],[9E9,9E9,9E9,9E9,9E9,9E9]],v100,z1,tADSK27\WObj:=wADSK0;
    MoveL [[109.537,10,-10.525],[0,-0.25881905,0.96592583,0],[0,0,0,0],[9E9,9E9,9E9,9E9,9E9,9E9]],v100,z1,tADSK27\WObj:=wADSK0;
    ! Lead Out Move Starts
    MoveL [[109.259,10.673,-10.525],[0,-0.25881905,0.96592583,0],[0,0,0,0],[9E9,9E9,9E9,9E9,9E9,9E9]],v100,z1,tADSK27\WObj:=wADSK0;
    MoveL [[108.585,10.952,-10.525],[0,-0.25881905,0.96592583,0],[0,0,0,0],[9E9,9E9,9E9,9E9,9E9,9E9]],v100,z1,tADSK27\WObj:=wADSK0;
    MoveL [[107.632,10.952,-10.525],[0,-0.25881905,0.96592583,0],[0,0,0,0],[9E9,9E9,9E9,9E9,9E9,9E9]],v100,z1,tADSK27\WObj:=wADSK0;
    MoveL [[106.959,10.952,-10.246],[0,-0.25881905,0.96592583,0],[0,0,0,0],[9E9,9E9,9E9,9E9,9E9,9E9]],v100,z1,tADSK27\WObj:=wADSK0;
    MoveL [[106.68,10.952,-9.573],[0,-0.25881905,0.96592583,0],[0,0,0,0],[9E9,9E9,9E9,9E9,9E9,9E9]],v100,z1,tADSK27\WObj:=wADSK0;
    ! Rapid Move Starts
    MoveL [[106.68,10.952,16],[0,-0.25881905,0.96592583,0],[0,0,0,0],[9E9,9E9,9E9,9E9,9E9,9E9]],v800,z1,tADSK27\WObj:=wADSK0;
  ENDPROC
ENDMODULE
