%%%
  VERSION:1
  LANGUAGE:ENGLISH
%%%

MODULE m2D_Contour17

  PROC p2D_Contour17()
    MoveAbsJ [[0,0,5,-70,40,70],[9E9,9E9,9E9,9E9,9E9,9E9]]\NoEOffs,v800,fine,tADSK27;
    MoveL [[2449.353,-1045.85,16],[0,-0.25881905,0.96592583,0],[0,0,0,0],[9E9,9E9,9E9,9E9,9E9,9E9]],v800,z1,tADSK27\WObj:=wADSK0;
    MoveL [[2449.353,-1045.85,6],[0,-0.25881905,0.96592583,0],[0,0,0,0],[9E9,9E9,9E9,9E9,9E9,9E9]],v800,z1,tADSK27\WObj:=wADSK0;

    ! Spindle ON 
    ! SetDO Local_IO_0_DO11, 1;
    WaitTime 5;

    ! Plunge Move Starts
    MoveL [[2449.353,-1045.85,2],[0,-0.25881905,0.96592583,0],[0,0,0,0],[9E9,9E9,9E9,9E9,9E9,9E9]],v50,z1,tADSK27\WObj:=wADSK0;
    MoveL [[2449.353,-1045.85,-9.573],[0,-0.25881905,0.96592583,0],[0,0,0,0],[9E9,9E9,9E9,9E9,9E9,9E9]],v50,z1,tADSK27\WObj:=wADSK0;
    ! Lead In Move Starts
    MoveL [[2449.353,-1045.571,-10.246],[0,-0.25881905,0.96592583,0],[0,0,0,0],[9E9,9E9,9E9,9E9,9E9,9E9]],v100,z1,tADSK27\WObj:=wADSK0;
    MoveL [[2449.353,-1044.897,-10.525],[0,-0.25881905,0.96592583,0],[0,0,0,0],[9E9,9E9,9E9,9E9,9E9,9E9]],v100,z1,tADSK27\WObj:=wADSK0;
    MoveL [[2449.353,-1043.945,-10.525],[0,-0.25881905,0.96592583,0],[0,0,0,0],[9E9,9E9,9E9,9E9,9E9,9E9]],v100,z1,tADSK27\WObj:=wADSK0;
    MoveL [[2449.073,-1043.271,-10.525],[0,-0.25881905,0.96592583,0],[0,0,0,0],[9E9,9E9,9E9,9E9,9E9,9E9]],v100,z1,tADSK27\WObj:=wADSK0;
    MoveL [[2448.4,-1042.993,-10.525],[0,-0.25881905,0.96592583,0],[0,0,0,0],[9E9,9E9,9E9,9E9,9E9,9E9]],v100,z1,tADSK27\WObj:=wADSK0;
    ! Cutting Move Starts
    MoveL [[1895.47,-1042.993,-10.525],[0,-0.25881905,0.96592583,0],[0,0,0,0],[9E9,9E9,9E9,9E9,9E9,9E9]],v100,z1,tADSK27\WObj:=wADSK0;
    MoveL [[1893.647,-1042.63,-10.525],[0,-0.25881905,0.96592583,0],[0,0,0,0],[9E9,9E9,9E9,9E9,9E9,9E9]],v100,z1,tADSK27\WObj:=wADSK0;
    MoveL [[1892.102,-1041.598,-10.525],[0,-0.25881905,0.96592583,0],[0,0,0,0],[9E9,9E9,9E9,9E9,9E9,9E9]],v100,z1,tADSK27\WObj:=wADSK0;
    MoveL [[1891.07,-1040.053,-10.525],[0,-0.25881905,0.96592583,0],[0,0,0,0],[9E9,9E9,9E9,9E9,9E9,9E9]],v100,z1,tADSK27\WObj:=wADSK0;
    MoveL [[1890.708,-1038.23,-10.525],[0,-0.25881905,0.96592583,0],[0,0,0,0],[9E9,9E9,9E9,9E9,9E9,9E9]],v100,z1,tADSK27\WObj:=wADSK0;
    MoveL [[1890.708,0,-10.525],[0,-0.25881905,0.96592583,0],[0,0,0,0],[9E9,9E9,9E9,9E9,9E9,9E9]],v100,z1,tADSK27\WObj:=wADSK0;
    MoveL [[1890.708,10,-10.525],[0,-0.25881905,0.96592583,0],[0,0,0,0],[9E9,9E9,9E9,9E9,9E9,9E9]],v100,z1,tADSK27\WObj:=wADSK0;
    ! Lead Out Move Starts
    MoveL [[1890.429,10.674,-10.525],[0,-0.25881905,0.96592583,0],[0,0,0,0],[9E9,9E9,9E9,9E9,9E9,9E9]],v100,z1,tADSK27\WObj:=wADSK0;
    MoveL [[1889.755,10.952,-10.525],[0,-0.25881905,0.96592583,0],[0,0,0,0],[9E9,9E9,9E9,9E9,9E9,9E9]],v100,z1,tADSK27\WObj:=wADSK0;
    MoveL [[1888.802,10.952,-10.525],[0,-0.25881905,0.96592583,0],[0,0,0,0],[9E9,9E9,9E9,9E9,9E9,9E9]],v100,z1,tADSK27\WObj:=wADSK0;
    MoveL [[1888.129,10.952,-10.246],[0,-0.25881905,0.96592583,0],[0,0,0,0],[9E9,9E9,9E9,9E9,9E9,9E9]],v100,z1,tADSK27\WObj:=wADSK0;
    MoveL [[1887.85,10.952,-9.573],[0,-0.25881905,0.96592583,0],[0,0,0,0],[9E9,9E9,9E9,9E9,9E9,9E9]],v100,z1,tADSK27\WObj:=wADSK0;
    ! Rapid Move Starts
    MoveL [[1887.85,10.952,16],[0,-0.25881905,0.96592583,0],[0,0,0,0],[9E9,9E9,9E9,9E9,9E9,9E9]],v800,z1,tADSK27\WObj:=wADSK0;
  ENDPROC
ENDMODULE
