%%%
  VERSION:1
  LANGUAGE:ENGLISH
%%%

MODULE m2D_Contour18


  PROC p2D_Contour18()
    ! MoveAbsJ [[0,0,5,-70,40,70],[9E9,9E9,9E9,9E9,9E9,9E9]]\NoEOffs,v800,fine,tADSK27;
    MoveL [[1852.29,10.952,16],[0,-0.25881905,0.96592583,0],[0,0,0,0],[9E9,9E9,9E9,9E9,9E9,9E9]],v800,z1,tADSK27\WObj:=wADSK0;
    MoveL [[1852.29,10.952,6],[0,-0.25881905,0.96592583,0],[0,0,0,0],[9E9,9E9,9E9,9E9,9E9,9E9]],v800,z1,tADSK27\WObj:=wADSK0;
    ! Plunge Move Starts
    MoveL [[1852.29,10.952,2],[0,-0.25881905,0.96592583,0],[0,0,0,0],[9E9,9E9,9E9,9E9,9E9,9E9]],v50,z1,tADSK27\WObj:=wADSK0;
    MoveL [[1852.29,10.952,-9.573],[0,-0.25881905,0.96592583,0],[0,0,0,0],[9E9,9E9,9E9,9E9,9E9,9E9]],v50,z1,tADSK27\WObj:=wADSK0;
    ! Lead In Move Starts
    MoveL [[1852.011,10.952,-10.246],[0,-0.25881905,0.96592583,0],[0,0,0,0],[9E9,9E9,9E9,9E9,9E9,9E9]],v100,z1,tADSK27\WObj:=wADSK0;
    MoveL [[1851.338,10.952,-10.525],[0,-0.25881905,0.96592583,0],[0,0,0,0],[9E9,9E9,9E9,9E9,9E9,9E9]],v100,z1,tADSK27\WObj:=wADSK0;
    MoveL [[1850.385,10.952,-10.525],[0,-0.25881905,0.96592583,0],[0,0,0,0],[9E9,9E9,9E9,9E9,9E9,9E9]],v100,z1,tADSK27\WObj:=wADSK0;
    MoveL [[1849.711,10.674,-10.525],[0,-0.25881905,0.96592583,0],[0,0,0,0],[9E9,9E9,9E9,9E9,9E9,9E9]],v100,z1,tADSK27\WObj:=wADSK0;
    MoveL [[1849.432,10,-10.525],[0,-0.25881905,0.96592583,0],[0,0,0,0],[9E9,9E9,9E9,9E9,9E9,9E9]],v100,z1,tADSK27\WObj:=wADSK0;
    ! Cutting Move Starts
    MoveL [[1849.432,-1038.23,-10.525],[0,-0.25881905,0.96592583,0],[0,0,0,0],[9E9,9E9,9E9,9E9,9E9,9E9]],v100,z1,tADSK27\WObj:=wADSK0;
    MoveL [[1849.07,-1040.053,-10.525],[0,-0.25881905,0.96592583,0],[0,0,0,0],[9E9,9E9,9E9,9E9,9E9,9E9]],v100,z1,tADSK27\WObj:=wADSK0;
    MoveL [[1848.038,-1041.598,-10.525],[0,-0.25881905,0.96592583,0],[0,0,0,0],[9E9,9E9,9E9,9E9,9E9,9E9]],v100,z1,tADSK27\WObj:=wADSK0;
    MoveL [[1846.493,-1042.63,-10.525],[0,-0.25881905,0.96592583,0],[0,0,0,0],[9E9,9E9,9E9,9E9,9E9,9E9]],v100,z1,tADSK27\WObj:=wADSK0;
    MoveL [[1844.67,-1042.993,-10.525],[0,-0.25881905,0.96592583,0],[0,0,0,0],[9E9,9E9,9E9,9E9,9E9,9E9]],v100,z1,tADSK27\WObj:=wADSK0;
    MoveL [[1301.75,-1042.993,-10.525],[0,-0.25881905,0.96592583,0],[0,0,0,0],[9E9,9E9,9E9,9E9,9E9,9E9]],v100,z1,tADSK27\WObj:=wADSK0;
    MoveL [[1299.927,-1042.63,-10.525],[0,-0.25881905,0.96592583,0],[0,0,0,0],[9E9,9E9,9E9,9E9,9E9,9E9]],v100,z1,tADSK27\WObj:=wADSK0;
    MoveL [[1298.382,-1041.598,-10.525],[0,-0.25881905,0.96592583,0],[0,0,0,0],[9E9,9E9,9E9,9E9,9E9,9E9]],v100,z1,tADSK27\WObj:=wADSK0;
    MoveL [[1297.35,-1040.053,-10.525],[0,-0.25881905,0.96592583,0],[0,0,0,0],[9E9,9E9,9E9,9E9,9E9,9E9]],v100,z1,tADSK27\WObj:=wADSK0;
    MoveL [[1296.988,-1038.23,-10.525],[0,-0.25881905,0.96592583,0],[0,0,0,0],[9E9,9E9,9E9,9E9,9E9,9E9]],v100,z1,tADSK27\WObj:=wADSK0;
    MoveL [[1296.988,0,-10.525],[0,-0.25881905,0.96592583,0],[0,0,0,0],[9E9,9E9,9E9,9E9,9E9,9E9]],v100,z1,tADSK27\WObj:=wADSK0;
    MoveL [[1296.988,10,-10.525],[0,-0.25881905,0.96592583,0],[0,0,0,0],[9E9,9E9,9E9,9E9,9E9,9E9]],v100,z1,tADSK27\WObj:=wADSK0;
    ! Lead Out Move Starts
    MoveL [[1296.709,10.674,-10.525],[0,-0.25881905,0.96592583,0],[0,0,0,0],[9E9,9E9,9E9,9E9,9E9,9E9]],v100,z1,tADSK27\WObj:=wADSK0;
    MoveL [[1296.035,10.952,-10.525],[0,-0.25881905,0.96592583,0],[0,0,0,0],[9E9,9E9,9E9,9E9,9E9,9E9]],v100,z1,tADSK27\WObj:=wADSK0;
    MoveL [[1295.083,10.952,-10.525],[0,-0.25881905,0.96592583,0],[0,0,0,0],[9E9,9E9,9E9,9E9,9E9,9E9]],v100,z1,tADSK27\WObj:=wADSK0;
    MoveL [[1294.409,10.952,-10.246],[0,-0.25881905,0.96592583,0],[0,0,0,0],[9E9,9E9,9E9,9E9,9E9,9E9]],v100,z1,tADSK27\WObj:=wADSK0;
    MoveL [[1294.13,10.952,-9.573],[0,-0.25881905,0.96592583,0],[0,0,0,0],[9E9,9E9,9E9,9E9,9E9,9E9]],v100,z1,tADSK27\WObj:=wADSK0;
    ! Rapid Move Starts
    MoveL [[1294.13,10.952,16],[0,-0.25881905,0.96592583,0],[0,0,0,0],[9E9,9E9,9E9,9E9,9E9,9E9]],v800,z1,tADSK27\WObj:=wADSK0;
  ENDPROC
ENDMODULE
