%%%
  VERSION:1
  LANGUAGE:ENGLISH
%%%

MODULE m2D_Contour_3_8
PERS wobjdata wADSK0:=[FALSE,TRUE,"", [[1587.651,1696.886,906.0553],[0.0162324,0.0011719,-0.0014062,-0.9998666]],[[0,0,0],[1,0,0,0]]];
PERS tooldata tADSK27:=[TRUE,[[-244.295, -0.232878, 212.8031],[0.7071068,0,-0.707168,0]],[40,[50,0,120],[1,0,0,0],0,0,0]];

  PROC p2D_Contour_3_8()
    MoveAbsJ [[0,0,5,-70,40,70],[9E9,9E9,9E9,9E9,9E9,9E9]]\NoEOffs,v17,fine,tADSK27;
    MoveL [[1207.77,10.952,16],[0,-0.25881905,0.96592583,0],[0,0,0,0],[9E9,9E9,9E9,9E9,9E9,9E9]],v17,z1,tADSK27\WObj:=wADSK0;
    MoveL [[1207.77,10.952,6],[0,-0.25881905,0.96592583,0],[0,0,0,0],[9E9,9E9,9E9,9E9,9E9,9E9]],v17,z1,tADSK27\WObj:=wADSK0;
    ! Plunge Move Starts
    MoveL [[1207.77,10.952,2],[0,-0.25881905,0.96592583,0],[0,0,0,0],[9E9,9E9,9E9,9E9,9E9,9E9]],v38,z1,tADSK27\WObj:=wADSK0;
    MoveL [[1207.77,10.952,-9.573],[0,-0.25881905,0.96592583,0],[0,0,0,0],[9E9,9E9,9E9,9E9,9E9,9E9]],v38,z1,tADSK27\WObj:=wADSK0;
    ! Lead In Move Starts
    MoveL [[1207.491,10.952,-10.246],[0,-0.25881905,0.96592583,0],[0,0,0,0],[9E9,9E9,9E9,9E9,9E9,9E9]],v114,z1,tADSK27\WObj:=wADSK0;
    MoveL [[1206.817,10.952,-10.525],[0,-0.25881905,0.96592583,0],[0,0,0,0],[9E9,9E9,9E9,9E9,9E9,9E9]],v114,z1,tADSK27\WObj:=wADSK0;
    MoveL [[1205.865,10.952,-10.525],[0,-0.25881905,0.96592583,0],[0,0,0,0],[9E9,9E9,9E9,9E9,9E9,9E9]],v114,z1,tADSK27\WObj:=wADSK0;
    MoveL [[1205.191,10.674,-10.525],[0,-0.25881905,0.96592583,0],[0,0,0,0],[9E9,9E9,9E9,9E9,9E9,9E9]],v114,z1,tADSK27\WObj:=wADSK0;
    MoveL [[1204.912,10,-10.525],[0,-0.25881905,0.96592583,0],[0,0,0,0],[9E9,9E9,9E9,9E9,9E9,9E9]],v114,z1,tADSK27\WObj:=wADSK0;
    ! Cutting Move Starts
    MoveL [[1204.912,-990.6,-10.525],[0,-0.25881905,0.96592583,0],[0,0,0,0],[9E9,9E9,9E9,9E9,9E9,9E9]],v114,z1,tADSK27\WObj:=wADSK0;
    MoveL [[1204.55,-992.422,-10.525],[0,-0.25881905,0.96592583,0],[0,0,0,0],[9E9,9E9,9E9,9E9,9E9,9E9]],v114,z1,tADSK27\WObj:=wADSK0;
    MoveL [[1203.517,-993.968,-10.525],[0,-0.25881905,0.96592583,0],[0,0,0,0],[9E9,9E9,9E9,9E9,9E9,9E9]],v114,z1,tADSK27\WObj:=wADSK0;
    MoveL [[1201.972,-995,-10.525],[0,-0.25881905,0.96592583,0],[0,0,0,0],[9E9,9E9,9E9,9E9,9E9,9E9]],v114,z1,tADSK27\WObj:=wADSK0;
    MoveL [[1200.15,-995.362,-10.525],[0,-0.25881905,0.96592583,0],[0,0,0,0],[9E9,9E9,9E9,9E9,9E9,9E9]],v114,z1,tADSK27\WObj:=wADSK0;
    MoveL [[44.45,-995.362,-10.525],[0,-0.25881905,0.96592583,0],[0,0,0,0],[9E9,9E9,9E9,9E9,9E9,9E9]],v114,z1,tADSK27\WObj:=wADSK0;
    MoveL [[42.627,-995,-10.525],[0,-0.25881905,0.96592583,0],[0,0,0,0],[9E9,9E9,9E9,9E9,9E9,9E9]],v114,z1,tADSK27\WObj:=wADSK0;
    MoveL [[41.082,-993.968,-10.525],[0,-0.25881905,0.96592583,0],[0,0,0,0],[9E9,9E9,9E9,9E9,9E9,9E9]],v114,z1,tADSK27\WObj:=wADSK0;
    MoveL [[40.05,-992.422,-10.525],[0,-0.25881905,0.96592583,0],[0,0,0,0],[9E9,9E9,9E9,9E9,9E9,9E9]],v114,z1,tADSK27\WObj:=wADSK0;
    MoveL [[39.688,-990.6,-10.525],[0,-0.25881905,0.96592583,0],[0,0,0,0],[9E9,9E9,9E9,9E9,9E9,9E9]],v114,z1,tADSK27\WObj:=wADSK0;
    MoveL [[39.688,0,-10.525],[0,-0.25881905,0.96592583,0],[0,0,0,0],[9E9,9E9,9E9,9E9,9E9,9E9]],v114,z1,tADSK27\WObj:=wADSK0;
    MoveL [[39.688,10,-10.525],[0,-0.25881905,0.96592583,0],[0,0,0,0],[9E9,9E9,9E9,9E9,9E9,9E9]],v114,z1,tADSK27\WObj:=wADSK0;
    ! Lead Out Move Starts
    MoveL [[39.408,10.674,-10.525],[0,-0.25881905,0.96592583,0],[0,0,0,0],[9E9,9E9,9E9,9E9,9E9,9E9]],v114,z1,tADSK27\WObj:=wADSK0;
    MoveL [[38.735,10.952,-10.525],[0,-0.25881905,0.96592583,0],[0,0,0,0],[9E9,9E9,9E9,9E9,9E9,9E9]],v114,z1,tADSK27\WObj:=wADSK0;
    MoveL [[37.782,10.952,-10.525],[0,-0.25881905,0.96592583,0],[0,0,0,0],[9E9,9E9,9E9,9E9,9E9,9E9]],v114,z1,tADSK27\WObj:=wADSK0;
    MoveL [[37.109,10.952,-10.246],[0,-0.25881905,0.96592583,0],[0,0,0,0],[9E9,9E9,9E9,9E9,9E9,9E9]],v114,z1,tADSK27\WObj:=wADSK0;
    MoveL [[36.83,10.952,-9.573],[0,-0.25881905,0.96592583,0],[0,0,0,0],[9E9,9E9,9E9,9E9,9E9,9E9]],v114,z1,tADSK27\WObj:=wADSK0;
    ! Rapid Move Starts
    MoveL [[36.83,10.952,6],[0,-0.25881905,0.96592583,0],[0,0,0,0],[9E9,9E9,9E9,9E9,9E9,9E9]],v17,z1,tADSK27\WObj:=wADSK0;
    MoveL [[2449.352,-1055.37,6],[0,-0.25881905,0.96592583,0],[0,0,0,0],[9E9,9E9,9E9,9E9,9E9,9E9]],v17,z1,tADSK27\WObj:=wADSK0;
    ! Plunge Move Starts
    MoveL [[2449.352,-1055.37,2],[0,-0.25881905,0.96592583,0],[0,0,0,0],[9E9,9E9,9E9,9E9,9E9,9E9]],v38,z1,tADSK27\WObj:=wADSK0;
    MoveL [[2449.352,-1055.37,-9.573],[0,-0.25881905,0.96592583,0],[0,0,0,0],[9E9,9E9,9E9,9E9,9E9,9E9]],v38,z1,tADSK27\WObj:=wADSK0;
    ! Lead In Move Starts
    MoveL [[2449.352,-1055.091,-10.246],[0,-0.25881905,0.96592583,0],[0,0,0,0],[9E9,9E9,9E9,9E9,9E9,9E9]],v114,z1,tADSK27\WObj:=wADSK0;
    MoveL [[2449.352,-1054.417,-10.525],[0,-0.25881905,0.96592583,0],[0,0,0,0],[9E9,9E9,9E9,9E9,9E9,9E9]],v114,z1,tADSK27\WObj:=wADSK0;
    MoveL [[2449.352,-1053.465,-10.525],[0,-0.25881905,0.96592583,0],[0,0,0,0],[9E9,9E9,9E9,9E9,9E9,9E9]],v114,z1,tADSK27\WObj:=wADSK0;
    MoveL [[2449.073,-1052.791,-10.525],[0,-0.25881905,0.96592583,0],[0,0,0,0],[9E9,9E9,9E9,9E9,9E9,9E9]],v114,z1,tADSK27\WObj:=wADSK0;
    MoveL [[2448.4,-1052.512,-10.525],[0,-0.25881905,0.96592583,0],[0,0,0,0],[9E9,9E9,9E9,9E9,9E9,9E9]],v114,z1,tADSK27\WObj:=wADSK0;
    ! Cutting Move Starts
    MoveL [[1225.55,-1052.512,-10.525],[0,-0.25881905,0.96592583,0],[0,0,0,0],[9E9,9E9,9E9,9E9,9E9,9E9]],v114,z1,tADSK27\WObj:=wADSK0;
    MoveL [[1223.727,-1052.15,-10.525],[0,-0.25881905,0.96592583,0],[0,0,0,0],[9E9,9E9,9E9,9E9,9E9,9E9]],v114,z1,tADSK27\WObj:=wADSK0;
    MoveL [[1222.182,-1051.118,-10.525],[0,-0.25881905,0.96592583,0],[0,0,0,0],[9E9,9E9,9E9,9E9,9E9,9E9]],v114,z1,tADSK27\WObj:=wADSK0;
    MoveL [[1221.15,-1049.573,-10.525],[0,-0.25881905,0.96592583,0],[0,0,0,0],[9E9,9E9,9E9,9E9,9E9,9E9]],v114,z1,tADSK27\WObj:=wADSK0;
    MoveL [[1220.787,-1047.75,-10.525],[0,-0.25881905,0.96592583,0],[0,0,0,0],[9E9,9E9,9E9,9E9,9E9,9E9]],v114,z1,tADSK27\WObj:=wADSK0;
    MoveL [[1220.787,0,-10.525],[0,-0.25881905,0.96592583,0],[0,0,0,0],[9E9,9E9,9E9,9E9,9E9,9E9]],v114,z1,tADSK27\WObj:=wADSK0;
    MoveL [[1220.787,10,-10.525],[0,-0.25881905,0.96592583,0],[0,0,0,0],[9E9,9E9,9E9,9E9,9E9,9E9]],v114,z1,tADSK27\WObj:=wADSK0;
    ! Lead Out Move Starts
    MoveL [[1220.508,10.673,-10.525],[0,-0.25881905,0.96592583,0],[0,0,0,0],[9E9,9E9,9E9,9E9,9E9,9E9]],v114,z1,tADSK27\WObj:=wADSK0;
    MoveL [[1219.835,10.952,-10.525],[0,-0.25881905,0.96592583,0],[0,0,0,0],[9E9,9E9,9E9,9E9,9E9,9E9]],v114,z1,tADSK27\WObj:=wADSK0;
    MoveL [[1218.882,10.952,-10.525],[0,-0.25881905,0.96592583,0],[0,0,0,0],[9E9,9E9,9E9,9E9,9E9,9E9]],v114,z1,tADSK27\WObj:=wADSK0;
    MoveL [[1218.209,10.952,-10.246],[0,-0.25881905,0.96592583,0],[0,0,0,0],[9E9,9E9,9E9,9E9,9E9,9E9]],v114,z1,tADSK27\WObj:=wADSK0;
    MoveL [[1217.93,10.952,-9.573],[0,-0.25881905,0.96592583,0],[0,0,0,0],[9E9,9E9,9E9,9E9,9E9,9E9]],v114,z1,tADSK27\WObj:=wADSK0;
    ! Rapid Move Starts
    MoveL [[1217.93,10.952,16],[0,-0.25881905,0.96592583,0],[0,0,0,0],[9E9,9E9,9E9,9E9,9E9,9E9]],v17,z1,tADSK27\WObj:=wADSK0;
  ENDPROC
ENDMODULE
